alura/assets/api/cursos/linux-criando-script-monitoramento-sistema.svg

<svg width="52" height="50" viewBox="0 0 52 50" fill="none" xmlns="http://www.w3.org/2000/svg">
<path d="M48.3 20.0996C48.1 19.2996 45.6 12.5996 45.1 11.9996L42.1 8.49961H41.9L34.3 2.79961L26.5 2.09961C23.3 2.09961 12 2.39961 5.1 12.2996L1.2 22.8996H1L5 36.3996C5.1 36.7996 9.5 42.0996 9.9 42.2996L15.5 45.2996L47.7 33.5996C48.4 33.1996 49.4 24.9996 48.5 20.1996L48.3 20.0996Z" fill="#C3FF68"/>
<path d="M32.2002 47.4C25.2002 49.7 17.2002 48.6 10.9002 43.8C0.50018 36.1 -1.59982 21.4 6.20018 11" stroke="#444444" stroke-width="2.5" stroke-linecap="round" stroke-linejoin="round"/>
<path d="M6.1001 11.1998C8.1001 8.19982 10.8001 6.49982 10.8001 6.49982L11.5001 5.99982C19.6001 0.199819 30.7001 -0.000180721 39.1001 6.39982C49.5001 14.1998 51.5001 28.8998 43.8001 39.1998" stroke="#444444" stroke-width="2.5" stroke-linecap="round" stroke-linejoin="round"/>
<path fill-rule="evenodd" clip-rule="evenodd" d="M23.0999 11.6997C23.7999 11.6997 24.3999 12.2997 24.3999 12.9997C24.3999 13.6997 23.7999 14.2997 23.0999 14.2997C22.3999 14.2997 21.7999 13.6997 21.7999 12.9997C21.7999 12.2997 22.3999 11.6997 23.0999 11.6997ZM33.5999 43.6997C43.0999 36.3997 37.1999 23.3997 30.4999 13.9997C23.3999 3.99967 17.2999 11.6997 11.3999 12.9997C27.7999 15.6997 1.7999 28.8997 15.9999 42.9997C14.5999 39.0997 14.4999 34.3997 15.6999 30.3997C17.2999 32.0997 19.8999 33.0997 23.0999 33.4997C20.0999 29.1997 14.0999 21.2997 24.9999 21.2997C35.8999 21.2997 26.9999 31.0997 23.6999 34.8997C27.5999 34.6997 31.4999 33.8997 34.3999 31.0997C35.5999 35.1997 35.2999 39.7997 33.6999 43.6997H33.5999ZM21.0999 44.0997C22.7999 44.0997 24.2999 44.9997 24.2999 46.2997V47.9997L17.7999 46.2997C17.7999 44.9997 19.2999 44.0997 20.9999 44.0997M29.2999 44.0997C30.9999 44.0997 32.4999 44.9997 32.4999 46.2997L25.9999 47.9997V46.2997C25.9999 44.9997 27.4999 44.0997 29.1999 44.0997" fill="#444444"/>
</svg>

<svg xmlns="http://www.w3.org/2000/svg" fill="none" viewBox="0 0 52 50"><path fill="#C3FF68" d="M48.3 20.1c-.2-.8-2.7-7.5-3.2-8.1l-3-3.5h-.2l-7.6-5.7-7.8-.7c-3.2 0-14.5.3-21.4 10.2L1.2 22.9H1l4 13.5c.1.4 4.5 5.7 4.9 5.9l5.6 3 32.2-11.7c.7-.4 1.7-8.6.8-13.4l-.2-.1z"/><path stroke="#444" stroke-linecap="round" stroke-linejoin="round" stroke-width="2.5" d="M32.2 47.4c-7 2.3-15 1.2-21.3-3.6C.5 36.1-1.6 21.4 6.2 11"/><path stroke="#444" stroke-linecap="round" stroke-linejoin="round" stroke-width="2.5" d="M6.1 11.2c2-3 4.7-4.7 4.7-4.7l.7-.5c8.1-5.8 19.2-6 27.6.4 10.4 7.8 12.4 22.5 4.7 32.8"/><path fill="#444" fill-rule="evenodd" d="M23.1 11.7c.7 0 1.3.6 1.3 1.3 0 .7-.6 1.3-1.3 1.3-.7 0-1.3-.6-1.3-1.3 0-.7.6-1.3 1.3-1.3zm10.5 32c9.5-7.3 3.6-20.3-3.1-29.7-7.1-10-13.2-2.3-19.1-1 16.4 2.7-9.6 15.9 4.6 30-1.4-3.9-1.5-8.6-.3-12.6 1.6 1.7 4.2 2.7 7.4 3.1-3-4.3-9-12.2 1.9-12.2s2 9.8-1.3 13.6c3.9-.2 7.8-1 10.7-3.8 1.2 4.1.9 8.7-.7 12.6h-.1zm-12.5.4c1.7 0 3.2.9 3.2 2.2V48l-6.5-1.7c0-1.3 1.5-2.2 3.2-2.2m8.3 0c1.7 0 3.2.9 3.2 2.2L26 48v-1.7c0-1.3 1.5-2.2 3.2-2.2" clip-rule="evenodd"/></svg>
